X:457
T:Cameron Highlanders, The 
C:Joe Buchanan's Scottish Tome - Page 112.0
I:112 0
Z:Carl Allison
C:J. S. Skinner
R:Pipe March
L:1/8
M:2/4
K:A
z | (Ae/c/) (Ae/A/) | {fg}(fe) (ea) | (Ae/c/) (Ae/A/) | {A}(cB) Bc |
(Ae/c/) (Ae/A/) | {fg}(fe) (ea) | f/a/e/a/ c/a/B/a/ | {ce}(cA) [AA] :|
a | {fa}(fe/a/) {ce}(cA/a/) | {ce}(cA) (Aa) | {fa}(fe/a/) {ce}(cA/a/) | {ce}(cB) (Ba) |
{fg}(fe/a/) (cA/a/) | e/c/a/c/ e{/f}a | f/a/e/a/ c/a/B/a/ | {ce}(cA) [AA] :|
(e/c/) | A/<(A/e/c/) A/e/c/A/ | {fg}(fe) (ea) | A/<A/e/c/ A/e/c/A/ | {ce}(cB) (Be/c/) |
A/<A/e/c/ A/e/c/A/ | {fg}(fe) (ea) | f/a/e/a/ c/a/a/ | {cd}(cA) [AA] :|
a | (f/a/e/)a/ c/a/A/a/ | {fg}(cA) (Aa) | f/a/e/a/ c/a/A/a/ | {ce}(cB) (Ba) |
f/a/e/a/ c/a/A/a/ | e/c/a/c/ e/f/g/a/ | f/a/e/a/ c/a/B/a/ | {ce}(cA) ([AA] a) |
(f/a/e/)a/ c/a/B/a/ | A/a/B/a/ c/a/A/a/ | f/a/e/a/ c/a/A/a/ | {ce}(cB) (Be/c/) |
A/<(A/c/A/) e/A/c/A/ | e/A/f/A/ g/A/a/A/ | f/a/e/a/ c/a/B/a/ | {ce}(cA) [AA] |]

